X:549
T: Tianshui xianglian haofengguang
N: C1967
O: China, Hunan Lingxiang
S: I, 513]
R: Xiaodiao, Yuminge]
M: 2/4
L: 1/16
K: G
d2d2egeB | d6B2 | d2egedB2 | A8
d2egedB2 | A8
d2dBd3B | A2BAG4 | E2B2AGE2 | G2E2D4
GAGED2D2 | EGGEG4
d2d4Bd | e3dB2A2 | d6BA | G3AB2AB | A6B2 | G2EGAGE2 | D8

